src/assets/images/icons/logo.svg

<svg viewBox="0 0 16.97 10.6" xmlns="http://www.w3.org/2000/svg"><circle cx="5.3" cy="5.3" fill="#fff" r="5.3"/><path d="m5.31 10a4.65 4.65 0 0 1 -3.38-1.38 4.61 4.61 0 0 1 -1.4-3.39 4.65 4.65 0 0 1 1.4-3.39 4.58 4.58 0 0 1 3.38-1.41 4.92 4.92 0 0 1 3.4 1.4l-1.36 1.38a2.79 2.79 0 0 0 -2-.85 2.7 2.7 0 0 0 -2 .85 2.8 2.8 0 0 0 0 4 2.8 2.8 0 0 0 4 0l1.36 1.41a4.71 4.71 0 0 1 -3.4 1.38z" fill="#231f20"/><path d="m14.11 10.13-2.57-3.73v3.73h-2.14v-9.75h2.14v3.83l2.23-3.83h2.45l-2.87 4.91 3.38 4.84z" fill="#231f20"/><path d="m16 .5-2.8 4.8 3.29 4.7h-2.31l-2.76-4v4h-1.89v-9.5h1.89v4.18l2.42-4.18zm.44-.25h-2.74l-.08.12-1.95 3.38v-3.5h-2.39v10h2.39v-3.45l2.33 3.34.08.11h2.92l-.28-.39-3.22-4.57 2.72-4.66z" fill="#fff"/></svg>

<svg xmlns="http://www.w3.org/2000/svg" viewBox="0 0 16.97 10.6"><defs><style>.cls-1{fill:#fff;}.cls-2{fill:#231f20;}</style></defs><title>Fichier 1</title><g id="Calque_2" data-name="Calque 2"><g id="Calque_1-2" data-name="Calque 1"><g id="Calque_1-2-2" data-name="Calque 1-2"><circle class="cls-1" cx="5.3" cy="5.3" r="5.3"/><path class="cls-2" d="M5.31,10A4.65,4.65,0,0,1,1.93,8.62,4.61,4.61,0,0,1,.53,5.23a4.65,4.65,0,0,1,1.4-3.39A4.58,4.58,0,0,1,5.31.43h0a4.92,4.92,0,0,1,3.4,1.4L7.35,3.21a2.79,2.79,0,0,0-2-.85,2.7,2.7,0,0,0-2,.85,2.8,2.8,0,0,0,0,4,2.8,2.8,0,0,0,4,0L8.71,8.62A4.71,4.71,0,0,1,5.31,10Z"/><polygon class="cls-2" points="14.11 10.13 11.54 6.4 11.54 10.13 9.4 10.13 9.4 0.38 11.54 0.38 11.54 4.21 13.77 0.38 16.22 0.38 13.35 5.29 16.73 10.13 14.11 10.13"/><path class="cls-1" d="M16,.5,13.2,5.3,16.49,10H14.18L11.42,6v4H9.53V.5h1.89V4.68L13.84.5H16m.44-.25H13.7l-.08.12L11.67,3.75V.25H9.28v10h2.39V6.8L14,10.14l.08.11H17l-.28-.39L13.5,5.29,16.22.63l.22-.38Z"/></g></g></g></svg>
